**kern	**silbe	**harmony	**phrase	**leadinstrument	**rhyme	**timestamp	**harte
*ICvox	*	*M4/4	*	*	*	*	*M4/4
*VRlead	*	*	*	*	*	*	*
*Hstimme	*	*	*	*	*	*	*
*C:	*	*a:	*a:	*a:	*	*a:	*a:
*M4/4	*	*	*	*	*	*	*
*clefC3	*	*	*	*	*	*	*
r;	.	1r;	.	r	.	0	N.C.
=1	=1	=1	=1	=1	=1	=1	=1
*>Letter>C	*>Letter>C	*>Letter>C	*>Letter>C	*>Letter>C	*>Letter>C	*>Letter>C	*>Letter>C
*>Label>Intro	*>Label>Intro	*>Label>Intro	*>Label>Intro	*>Label>Intro	*>Label>Intro	*>Label>Intro	*>Label>Intro
1r	.	1Am	newline	r	.	0.3	A:min
=2	=2	=2	=2	=2	=2	=2	=2
1r	.	1Am	.	r	.	2.094	A:min
=3	=3	=3	=3	=3	=3	=3	=3
1r	.	1EMm	.	r	.	3.888	E:7
=4	=4	=4	=4	=4	=4	=4	=4
1r	.	1Am	.	r	.	5.682	A:min
=5	=5	=5	=5	=5	=5	=5	=5
1r	.	1Am	newline	r	.	7.476	A:min
=6	=6	=6	=6	=6	=6	=6	=6
1r	.	1Am	.	r	.	9.244	A:min
=7	=7	=7	=7	=7	=7	=7	=7
1r	.	1EMm	.	r	.	11.011	E:7
=8	=8	=8	=8	=8	=8	=8	=8
1r	.	1Am	.	r	.	12.779	A:min
=9	=9	=9	=9	=9	=9	=9	=9
*>Letter>A	*>Letter>A	*>Letter>A	*>Letter>A	*>Letter>A	*>Letter>A	*>Letter>A	*>Letter>A
*>Label>Verse	*>Label>Verse	*>Label>Verse	*>Label>Verse	*>Label>Verse	*>Label>Verse	*>Label>Verse	*>Label>Verse
8r	.	1Am	newline	voice	.	14.546	A:min
8d	Ne-	.	.	.	.	.	.
8c	-ver	.	.	.	.	.	.
8d	know	.	.	.	.	.	.
8c	how	.	.	.	.	.	.
8d	much	.	.	.	.	.	.
8A	I	.	.	.	.	.	.
[8c	love	.	.	.	.	.	.
=10	=10	=10	=10	=10	=10	=10	=10
16c]	_	1Am	.	voice	.	16.305	A:min
8d	you	.	.	.	.	.	.
16r	.	.	.	.	.	.	.
4r	.	.	.	.	.	.	.
2r	.	.	.	.	.	.	.
=11	=11	=11	=11	=11	=11	=11	=11
8d	ne-	1Am	.	voice	.	18.064	A:min
8c	-ver	.	.	.	.	.	.
8d	know	.	.	.	.	.	.
8c	how	.	.	.	.	.	.
8d	much	.	.	.	.	.	.
8c	_	.	.	.	.	.	.
8A	I	.	.	.	.	.	.
8A	care.	.	.	.	A	.	.
=12	=12	=12	=12	=12	=12	=12	=12
1r	.	1Am	.	voice	.	19.823	A:min
=13	=13	=13	=13	=13	=13	=13	=13
8d	When	1Am	newline	voice	.	21.582	A:min
8c	you	.	.	.	.	.	.
8d	put	.	.	.	.	.	.
8c	your	.	.	.	.	.	.
4d	arms	.	.	.	.	.	.
8A	a-	.	.	.	.	.	.
[8c	-round	.	.	.	.	.	.
=14	=14	=14	=14	=14	=14	=14	=14
8c]	_	1Am	.	voice	.	23.347	A:min
8d	me	.	.	.	B	.	.
4r	.	.	.	.	.	.	.
8r	.	.	.	.	.	.	.
8A	I	.	.	.	.	.	.
8A	get	.	.	.	.	.	.
8A	a	.	.	.	.	.	.
=15	=15	=15	=15	=15	=15	=15	=15
8d	fe-	1EMm	.	voice	(B	25.112	E:7
8c	-ver	.	.	.	b)	.	.
8d	that's	.	.	.	.	.	.
8c	so	.	.	.	.	.	.
8d	hard	.	.	.	.	.	.
8c	_	.	.	.	.	.	.
8A	to	.	.	.	.	.	.
[8A	bear,	.	.	.	A	.	.
=16	=16	=16	=16	=16	=16	=16	=16
8A]	_	1Am	.	voice	.	26.877	A:min
8A	you	.	.	.	.	.	.
8A	give	.	.	.	.	.	.
8A	me	.	.	.	B	.	.
4c	fe-	.	.	.	(B	.	.
4A	-ver	.	.	.	b)	.	.
=17	=17	=17	=17	=17	=17	=17	=17
*>Letter>B	*>Letter>B	*>Letter>B	*>Letter>B	*>Letter>B	*>Letter>B	*>Letter>B	*>Letter>B
*>Label>Chorus	*>Label>Chorus	*>Label>Chorus	*>Label>Chorus	*>Label>Chorus	*>Label>Chorus	*>Label>Chorus	*>Label>Chorus
1r	.	1Am	newline	voice	.	28.643	A:min
=18	=18	=18	=18	=18	=18	=18	=18
8r	.	1Am	.	voice	.	30.407	A:min
8dq	_	.	.	.	.	.	.
[8e-	when	.	.	.	.	.	.
8e-]	_	.	.	.	.	.	.
8c	you	.	.	.	.	.	.
4d	kiss	.	.	.	.	.	.
4c	me,	.	.	.	B	.	.
=19	=19	=19	=19	=19	=19	=19	=19
8d	fe-	1Am	.	voice	(B	32.172	A:min
8c	-ver	.	.	.	b)	.	.
8d	when.	.	.	.	.	.	.
8c	you	.	.	.	.	.	.
[8d	hold	.	.	.	.	.	.
8c]	_	.	.	.	.	.	.
8A	me	.	.	.	B	.	.
[8A	tight	.	.	.	C	.	.
=20	=20	=20	=20	=20	=20	=20	=20
4A]	_	1Am	.	voice	.	33.937	A:min
4r	.	.	.	.	.	.	.
2r	.	.	.	.	.	.	.
=21	=21	=21	=21	=21	=21	=21	=21
12g	Fe-	1Am	newline	voice	(B	35.702	A:min
12a	-ver!	.	.	.	b)	.	.
12r	.	.	.	.	.	.	.
4r	.	.	.	.	.	.	.
4r	.	.	.	.	.	.	.
8r	.	.	.	.	.	.	.
8d	In	.	.	.	.	.	.
=22	=22	=22	=22	=22	=22	=22	=22
8c	the	1Am	.	voice	.	37.464	A:min
8d	mor-	.	.	.	.	.	.
8c	-nin'	.	.	.	.	.	.
8r	.	.	.	.	.	.	.
4r	.	.	.	.	.	.	.
8r	.	.	.	.	.	.	.
8~G	a'-	.	.	.	.	.	.
=23	=23	=23	=23	=23	=23	=23	=23
8d	-fe-	1EMm	.	voice	.	39.226	E:7
8c	-ver	.	.	.	.	.	.
4d	all	.	.	.	.	.	.
8d	through	.	.	.	.	.	.
8c	_	.	.	.	.	.	.
8A	the	.	.	.	.	.	.
8A	night.	.	.	.	C	.	.
=24	=24	=24	=24	=24	=24	=24	=24
1r	.	1Am	.	voice	.	40.988	A:min
=25	=25	=25	=25	=25	=25	=25	=25
*>Letter>A	*>Letter>A	*>Letter>A	*>Letter>A	*>Letter>A	*>Letter>A	*>Letter>A	*>Letter>A
*>Label>Verse	*>Label>Verse	*>Label>Verse	*>Label>Verse	*>Label>Verse	*>Label>Verse	*>Label>Verse	*>Label>Verse
8r	.	1Am	newline	voice	.	42.75	A:min
4.d	Sun	.	.	.	.	.	.
8c	lights	.	.	.	C	.	.
8d	up	.	.	.	.	.	.
8r	.	.	.	.	.	.	.
8A	the	.	.	.	.	.	.
=26	=26	=26	=26	=26	=26	=26	=26
8c	day-	1Am	.	voice	.	44.495	A:min
8d	-time	.	.	.	C	.	.
4r	.	.	.	.	.	.	.
4r	.	.	.	.	.	.	.
8r	.	.	.	.	.	.	.
8A	the	.	.	.	.	.	.
=27	=27	=27	=27	=27	=27	=27	=27
4e-	moon	1Am	.	voice	.	46.241	A:min
4d	lights	.	.	.	C	.	.
4c	up	.	.	.	.	.	.
8A	the	.	.	.	.	.	.
8A	night	.	.	.	C	.	.
=28	=28	=28	=28	=28	=28	=28	=28
2r	.	1Am	.	voice	.	47.987	A:min
4r	.	.	.	.	.	.	.
8r	.	.	.	.	.	.	.
8gq	_	.	.	.	.	.	.
[8a	I	.	.	.	.	.	.
=29	=29	=29	=29	=29	=29	=29	=29
6a]	_	1Am	newline	voice	.	49.732	A:min
6e-	light	.	.	.	C	.	.
6e-	up	.	.	.	.	.	.
6~d	when	.	.	.	.	.	.
6d	you	.	.	.	.	.	.
12e-	call	.	.	.	.	.	.
[12d	_	.	.	.	.	.	.
=30	=30	=30	=30	=30	=30	=30	=30
4d]	_	1Am	.	voice	.	51.508	A:min
8c	my	.	.	.	.	.	.
8A	name	.	.	.	E	.	.
8r	.	.	.	.	.	.	.
4A	and	.	.	.	.	.	.
8A	you	.	.	.	.	.	.
=31	=31	=31	=31	=31	=31	=31	=31
8d	know	1EMm	.	voice	.	53.285	E:7
8c	I'm	.	.	.	.	.	.
8d	gon-	.	.	.	.	.	.
8c	-na	.	.	.	.	.	.
8d	treat	.	.	.	(B	.	.
8c	_	.	.	.	.	.	.
8A	you	.	.	.	b)	.	.
[8A	right,	.	.	.	C	.	.
=32	=32	=32	=32	=32	=32	=32	=32
8A]	_	1Am	.	voice	.	55.061	A:min
8A	you	.	.	.	.	.	.
8A	give	.	.	.	.	.	.
8A	me	.	.	.	.	.	.
4c	fe-	.	.	.	(B	.	.
4A	-ver.	.	.	.	b)	.	.
=33	=33	=33	=33	=33	=33	=33	=33
*>Letter>B	*>Letter>B	*>Letter>B	*>Letter>B	*>Letter>B	*>Letter>B	*>Letter>B	*>Letter>B
*>Label>Chorus	*>Label>Chorus	*>Label>Chorus	*>Label>Chorus	*>Label>Chorus	*>Label>Chorus	*>Label>Chorus	*>Label>Chorus
1r	.	1Am	newline	voice	.	56.837	A:min
=34	=34	=34	=34	=34	=34	=34	=34
8r	.	1Am	.	voice	.	58.602	A:min
8dq	_	.	.	.	.	.	.
[8e-	When	.	.	.	.	.	.
8e-]	_	.	.	.	.	.	.
8c	you	.	.	.	.	.	.
4d	kiss	.	.	.	.	.	.
4c	me,	.	.	.	.	.	.
=35	=35	=35	=35	=35	=35	=35	=35
8d	fe-	1Am	.	voice	.	60.366	A:min
8c	-ver	.	.	.	.	.	.
8d	when	.	.	.	.	.	.
8c	you	.	.	.	.	.	.
[8d	hold	.	.	.	.	.	.
8c]	_	.	.	.	.	.	.
8A	me	.	.	.	.	.	.
[8A	tight	.	.	.	C	.	.
=36	=36	=36	=36	=36	=36	=36	=36
4A]	_	1Am	.	voice	.	62.13	A:min
4r	.	.	.	.	.	.	.
4r	.	.	.	.	.	.	.
12r	.	.	.	.	.	.	.
12r	.	.	.	.	.	.	.
12g	Fe-	.	.	.	(B	.	.
=37	=37	=37	=37	=37	=37	=37	=37
8a	-ver!	1Am	newline	voice	b)	63.894	A:min
8r	.	.	.	.	.	.	.
4r	.	.	.	.	.	.	.
4r	.	.	.	.	.	.	.
8r	.	.	.	.	.	.	.
8d	In	.	.	.	.	.	.
=38	=38	=38	=38	=38	=38	=38	=38
8c	the	1Am	.	voice	.	65.652	A:min
8d	mor-	.	.	.	.	.	.
8c	-nin',	.	.	.	.	.	.
8r	.	.	.	.	.	.	.
4r	.	.	.	.	.	.	.
8r	.	.	.	.	.	.	.
8~G	a-	.	.	.	.	.	.
=39	=39	=39	=39	=39	=39	=39	=39
8d	-fe-	1EMm	.	voice	.	67.409	E:7
8c	-ver	.	.	.	.	.	.
4d	all	.	.	.	.	.	.
8d	through	.	.	.	.	.	.
8c	_	.	.	.	.	.	.
8A	the	.	.	.	.	.	.
8A	night.	.	.	.	C	.	.
=40	=40	=40	=40	=40	=40	=40	=40
1r	.	1Am	.	voice	.	69.167	A:min
=41	=41	=41	=41	=41	=41	=41	=41
*>Letter>F	*>Letter>F	*>Letter>F	*>Letter>F	*>Letter>F	*>Letter>F	*>Letter>F	*>Letter>F
*>Label>Bridge	*>Label>Bridge	*>Label>Bridge	*>Label>Bridge	*>Label>Bridge	*>Label>Bridge	*>Label>Bridge	*>Label>Bridge
8r	.	1Am	newline	voice	.	70.925	A:min
4c	Ev-	.	.	.	.	.	.
8A	-'ry-	.	.	.	.	.	.
4A	-bo-	.	.	.	.	.	.
4G	-dy's	.	.	.	.	.	.
=42	=42	=42	=42	=42	=42	=42	=42
8r	.	1Am	.	voice	.	72.675	A:min
4A	got	.	.	.	.	.	.
8G	the	.	.	.	.	.	.
4A	fe-	.	.	.	(B	.	.
4c	-ver,	.	.	.	b)	.	.
=43	=43	=43	=43	=43	=43	=43	=43
8r	.	1Am	.	voice	.	74.426	A:min
8c	that	.	.	.	.	.	.
4A	is	.	.	.	.	.	.
4A	some-	.	.	.	.	.	.
4G	-thin'	.	.	.	.	.	.
=44	=44	=44	=44	=44	=44	=44	=44
8A	you	1Am	.	voice	.	76.176	A:min
4G	all	.	.	.	.	.	.
8A	know	.	.	.	D	.	.
2r	.	.	.	.	.	.	.
=45	=45	=45	=45	=45	=45	=45	=45
8r	.	1Am	newline	voice	.	77.927	A:min
4c	Fe-	.	.	.	(B	.	.
8A	-ver	.	.	.	b)	.	.
4A	is-	.	.	.	.	.	.
4G	-n't	.	.	.	.	.	.
=46	=46	=46	=46	=46	=46	=46	=46
8r	.	1Am	.	voice	.	79.678	A:min
4A	such	.	.	.	.	.	.
8G	a	.	.	.	.	.	.
4A	new	.	.	.	.	.	.
4c	thing,	.	.	.	B	.	.
=47	=47	=47	=47	=47	=47	=47	=47
8d	fe-	1EMm	.	voice	(B	81.43	E:7
8c	-ver	.	.	.	b)	.	.
8d	star-	.	.	.	.	.	.
8c	-ted	.	.	.	.	.	.
8d	long	.	.	.	.	.	.
8c	_	.	.	.	.	.	.
8A	a-	.	.	.	.	.	.
8A	-go.	.	.	.	D	.	.
=48	=48	=48	=48	=48	=48	=48	=48
1r	.	1Am	.	voice	.	83.181	A:min
=49	=49	=49	=49	=49	=49	=49	=49
*>Letter>K	*>Letter>K	*>Letter>K	*>Letter>K	*>Letter>K	*>Letter>K	*>Letter>K	*>Letter>K
*>Label>Interlude	*>Label>Interlude	*>Label>Interlude	*>Label>Interlude	*>Label>Interlude	*>Label>Interlude	*>Label>Interlude	*>Label>Interlude
*B-:	*	*B-:	*B-:	*B-:	*	*B-:	*B-:
1r	.	1B-m	newline	voice	.	84.933	B-:min
=50	=50	=50	=50	=50	=50	=50	=50
1r	.	1B-m	.	voice	.	86.695	B-:min
=51	=51	=51	=51	=51	=51	=51	=51
1r	.	1FMm	.	voice	.	88.457	F:7
=52	=52	=52	=52	=52	=52	=52	=52
1r	.	1B-m	.	voice	.	90.219	B-:min
=53	=53	=53	=53	=53	=53	=53	=53
*>Letter>A	*>Letter>A	*>Letter>A	*>Letter>A	*>Letter>A	*>Letter>A	*>Letter>A	*>Letter>A
*>Label>Verse	*>Label>Verse	*>Label>Verse	*>Label>Verse	*>Label>Verse	*>Label>Verse	*>Label>Verse	*>Label>Verse
8r	.	1B-m	newline	voice	.	91.981	B-:min
4e-	Ro-	.	.	.	.	.	.
8d-	-me-	.	.	.	b	.	.
4e-	-o	.	.	.	D	.	.
8B-	loved	.	.	.	.	.	.
[8d-	Ju	.	.	.	.	.	.
=54	=54	=54	=54	=54	=54	=54	=54
16.d-]	_	1B-m	.	voice	.	93.725	B-:min
32d-	li-	.	.	.	b	.	.
8e-	-et	.	.	.	.	.	.
4r	.	.	.	.	.	.	.
4r	.	.	.	.	.	.	.
8r	.	.	.	.	.	.	.
8e-q	_	.	.	.	.	.	.
[8e	Ju	.	.	.	.	.	.
=55	=55	=55	=55	=55	=55	=55	=55
8e]	_	1B-m	.	voice	.	95.47	B-:min
8e	li-	.	.	.	b	.	.
8e	-et,	.	.	.	.	.	.
[8e	she	.	.	.	B	.	.
8e]	_	.	.	.	.	.	.
16d#	felt	.	.	.	.	.	.
16e	_	.	.	.	.	.	.
6d#	_	.	.	.	.	.	.
[12d-	the	.	.	.	.	.	.
=56	=56	=56	=56	=56	=56	=56	=56
12d-]	_	1B-m	.	voice	.	97.215	B-:min
6B-	same	.	.	.	E	.	.
4r	.	.	.	.	.	.	.
4r	.	.	.	.	.	.	.
8r	.	.	.	.	.	.	.
8F	And	.	.	.	.	.	.
=57	=57	=57	=57	=57	=57	=57	=57
8e-	when	1B-m	newline	voice	.	98.959	B-:min
8d-	he	.	.	.	B	.	.
8e-	put	.	.	.	.	.	.
8d-	his	.	.	.	.	.	.
4e-	arms	.	.	.	.	.	.
8B-	a-	.	.	.	.	.	.
[8d-	-round	.	.	.	.	.	.
=58	=58	=58	=58	=58	=58	=58	=58
8d-]	_	1B-m	.	voice	.	100.718	B-:min
8e-	her	.	.	.	.	.	.
4r	.	.	.	.	.	.	.
8r	.	.	.	.	.	.	.
8B-	he	.	.	.	B	.	.
8B-	said	.	.	.	.	.	.
[8e-	\\\"Ju	.	.	.	.	.	.
=59	=59	=59	=59	=59	=59	=59	=59
24e-]	_	1FMm	.	voice	.	102.477	F:7
8d-	lie,	.	.	.	b	.	.
8e-	ba-	.	.	.	.	.	.
8d-	-by,	.	.	.	b	.	.
[12e-	you're	.	.	.	.	.	.
8e-]	_	.	.	.	.	.	.
8d-	_	.	.	.	.	.	.
8B-	my	.	.	.	.	.	.
[8B-	flame	.	.	.	E	.	.
=60	=60	=60	=60	=60	=60	=60	=60
6B-]	,\\\"	1B-m	.	voice	.	104.236	B-:min
6B-	thou	.	.	.	.	.	.
12B-	gi-	.	.	.	.	.	.
[12B-	-vest	.	.	.	.	.	.
8B-]	_	.	.	.	.	.	.
8d-	fe-	.	.	.	(B	.	.
4B-	-ver.	.	.	.	b)	.	.
=61	=61	=61	=61	=61	=61	=61	=61
*>Letter>B	*>Letter>B	*>Letter>B	*>Letter>B	*>Letter>B	*>Letter>B	*>Letter>B	*>Letter>B
*>Label>Chorus	*>Label>Chorus	*>Label>Chorus	*>Label>Chorus	*>Label>Chorus	*>Label>Chorus	*>Label>Chorus	*>Label>Chorus
1r	.	1B-m	newline	voice	.	105.995	B-:min
=62	=62	=62	=62	=62	=62	=62	=62
8r	.	1B-m	.	voice	.	107.753	B-:min
8e-q	_	.	.	.	.	.	.
[8f-	When	.	.	.	.	.	.
8f-]	_	.	.	.	.	.	.
8d-	we	.	.	.	b	.	.
8e-	kiss-	.	.	.	.	.	.
8d-	-eth	.	.	.	.	.	.
8r	.	.	.	.	.	.	.
[8e-	fe	.	.	.	(B	.	.
=63	=63	=63	=63	=63	=63	=63	=63
24e-]	_	1B-m	.	voice	.	109.511	B-:min
8d-	ver	.	.	.	b)	.	.
8e-	with	.	.	.	.	.	.
[8d-	thy	.	.	.	.	.	.
12d-]	_	.	.	.	.	.	.
8e-	fla	.	.	.	.	.	.
8d-	_	.	.	.	.	.	.
8B-	min'	.	.	.	.	.	.
8B-	youth.	.	.	.	F	.	.
=64	=64	=64	=64	=64	=64	=64	=64
2r	.	1B-m	.	voice	.	111.268	B-:min
4r	.	.	.	.	.	.	.
12r	.	.	.	.	.	.	.
12r	.	.	.	.	.	.	.
12a-	Fe-	.	.	.	(B	.	.
=65	=65	=65	=65	=65	=65	=65	=65
8b-	-ver!	1B-m	newline	voice	b)	113.026	B-:min
8r	.	.	.	.	.	.	.
4r	.	.	.	.	.	.	.
4r	.	.	.	.	.	.	.
8r	.	.	.	.	.	.	.
8e	I'm	.	.	.	.	.	.
=66	=66	=66	=66	=66	=66	=66	=66
8d-	a-	1B-m	.	voice	.	114.778	B-:min
8e-	-fi-	.	.	.	.	.	.
8d-	-re	.	.	.	.	.	.
8r	.	.	.	.	.	.	.
4r	.	.	.	.	.	.	.
8r	.	.	.	.	.	.	.
8e-	fe-	.	.	.	(B	.	.
=67	=67	=67	=67	=67	=67	=67	=67
8d-	-ver,	1FMm	.	voice	b)	116.531	F:7
8e-	yea,	.	.	.	.	.	.
4d-	I	.	.	.	.	.	.
6e-	burn	.	.	.	.	.	.
6d-	_	.	.	.	.	.	.
[6B-	for	.	.	.	.	.	.
=68	=68	=68	=68	=68	=68	=68	=68
8B-]	_	1B-m	.	voice	.	118.283	B-:min
4B-	sooth	.	.	.	F	.	.
8r	.	.	.	.	.	.	.
2r	.	.	.	.	.	.	.
=69	=69	=69	=69	=69	=69	=69	=69
*>Letter>K	*>Letter>K	*>Letter>K	*>Letter>K	*>Letter>K	*>Letter>K	*>Letter>K	*>Letter>K
*>Label>Interlude	*>Label>Interlude	*>Label>Interlude	*>Label>Interlude	*>Label>Interlude	*>Label>Interlude	*>Label>Interlude	*>Label>Interlude
*b:	*	*b:	*b:	*b:	*	*b:	*b:
1r	.	1Bm	newline	voice	.	120.036	B:min
=70	=70	=70	=70	=70	=70	=70	=70
1r	.	1Bm	.	voice	.	121.789	B:min
=71	=71	=71	=71	=71	=71	=71	=71
1r	.	2Bm	.	voice	.	123.543	B:min
.	.	2F#Mm	.	voice	.	124.42	F#:7
=72	=72	=72	=72	=72	=72	=72	=72
1r	.	1Bm	.	voice	.	125.297	B:min
=73	=73	=73	=73	=73	=73	=73	=73
*>Letter>A	*>Letter>A	*>Letter>A	*>Letter>A	*>Letter>A	*>Letter>A	*>Letter>A	*>Letter>A
*>Label>Verse	*>Label>Verse	*>Label>Verse	*>Label>Verse	*>Label>Verse	*>Label>Verse	*>Label>Verse	*>Label>Verse
6r	.	1Bm	newline	voice	.	127.051	B:min
6e	Cap-	.	.	.	.	.	.
6d	-tain	.	.	.	.	.	.
12e	Smith	.	.	.	.	.	.
12d	and	.	.	.	.	.	.
12r	.	.	.	.	.	.	.
8r	.	.	.	.	.	.	.
8e	Po-	.	.	.	.	.	.
=74	=74	=74	=74	=74	=74	=74	=74
8B	-ca-	1Bm	.	voice	.	128.797	B:min
8d	-han-	.	.	.	.	.	.
8e	-tas	.	.	.	.	.	.
8r	.	.	.	.	.	.	.
4r	.	.	.	.	.	.	.
8r	.	.	.	.	.	.	.
8dq	_	.	.	.	.	.	.
[8e	had	.	.	.	.	.	.
=75	=75	=75	=75	=75	=75	=75	=75
8e]	_	1Bm	.	voice	.	130.544	B:min
8d	a	.	.	.	.	.	.
8e	ve-	.	.	.	.	.	.
8d	-ry	.	.	.	b	.	.
8e	mad	.	.	.	.	.	.
8d	_	.	.	.	.	.	.
8B	af-	.	.	.	.	.	.
[8B	-fair	.	.	.	A	.	.
=76	=76	=76	=76	=76	=76	=76	=76
8~F#q	_	.	.	.	.	.	.
8B]	_	1Bm	.	voice	.	132.29	B:min
8r	.	.	.	.	.	.	.
4r	.	.	.	.	.	.	.
2r	.	.	.	.	.	.	.
=77	=77	=77	=77	=77	=77	=77	=77
8e	When	1Bm	newline	voice	.	134.037	B:min
8d	her	.	.	.	.	.	.
8e	dad-	.	.	.	.	.	.
8d	-dy	.	.	.	b	.	.
8r	.	.	.	.	.	.	.
8e	tried	.	.	.	.	.	.
8B	to	.	.	.	.	.	.
[8d	kill	.	.	.	.	.	.
=78	=78	=78	=78	=78	=78	=78	=78
8d]	_	1Bm	.	voice	.	135.789	B:min
8e	him	.	.	.	.	.	.
4r	.	.	.	.	.	.	.
8r	.	.	.	.	.	.	.
8B	she	.	.	.	b	.	.
4B	said,	.	.	.	.	.	.
=79	=79	=79	=79	=79	=79	=79	=79
8e	\\\"Dad-	1F#Mm	.	voice	.	137.54	F#:7
8d	-dy,	.	.	.	b	.	.
8e	oh,	.	.	.	.	.	.
8d	_	.	.	.	.	.	.
8e	don't	.	.	.	.	.	.
8d	_	.	.	.	.	.	.
8B	you	.	.	.	.	.	.
[8B	dare	.	.	.	A	.	.
=80	=80	=80	=80	=80	=80	=80	=80
8B]	,\\\"	1Bm	.	voice	.	139.292	B:min
8B	he	.	.	.	b	.	.
8B	gives	.	.	.	.	.	.
8B	me	.	.	.	b	.	.
4d	fe-	.	.	.	(B	.	.
4B	-ver.	.	.	.	b)	.	.
=81	=81	=81	=81	=81	=81	=81	=81
*>Letter>B	*>Letter>B	*>Letter>B	*>Letter>B	*>Letter>B	*>Letter>B	*>Letter>B	*>Letter>B
*>Label>Chorus	*>Label>Chorus	*>Label>Chorus	*>Label>Chorus	*>Label>Chorus	*>Label>Chorus	*>Label>Chorus	*>Label>Chorus
1r	.	1Bm	newline	voice	.	141.043	B:min
=82	=82	=82	=82	=82	=82	=82	=82
8r	.	1Bm	.	voice	.	142.773	B:min
8eq	_	.	.	.	.	.	.
[8f	With	.	.	.	.	.	.
8f]	_	.	.	.	.	.	.
8d	his	.	.	.	g	.	.
8e	kis-	.	.	.	(G	.	.
8d	-ses	.	.	.	g)	.	.
8r	.	.	.	.	.	.	.
[8e	fe	.	.	.	(B	.	.
=83	=83	=83	=83	=83	=83	=83	=83
8e]	_	1Bm	.	voice	.	144.503	B:min
8d	ver	.	.	.	b)	.	.
8e	when	.	.	.	.	.	.
8d	he	.	.	.	b	.	.
8e	holds	.	.	.	.	.	.
8d	_	.	.	.	.	.	.
8B	me	.	.	.	b	.	.
[8B	tight	.	.	.	C	.	.
=84	=84	=84	=84	=84	=84	=84	=84
4B]	_	1Bm	.	voice	.	146.233	B:min
4r	.	.	.	.	.	.	.
4r	.	.	.	.	.	.	.
12r	.	.	.	.	.	.	.
12r	.	.	.	.	.	.	.
12a	Fe-	.	.	.	(B	.	.
=85	=85	=85	=85	=85	=85	=85	=85
8b	-ver!	1Bm	newline	voice	b)	147.962	B:min
8r	.	.	.	.	.	.	.
4r	.	.	.	.	.	.	.
4r	.	.	.	.	.	.	.
8r	.	.	.	.	.	.	.
8e	I'm	.	.	.	.	.	.
=86	=86	=86	=86	=86	=86	=86	=86
8.d	his	1Bm	.	voice	g	149.726	B:min
16e	mis-	.	.	.	(G	.	.
8d	-sus	.	.	.	g)	.	.
8r	.	.	.	.	.	.	.
4r	.	.	.	.	.	.	.
8r	.	.	.	.	.	.	.
8~A	and	.	.	.	.	.	.
=87	=87	=87	=87	=87	=87	=87	=87
8e	dad-	1F#Mm	.	voice	.	151.489	F#:7
8d	-dy,	.	.	.	b	.	.
8e	won't	.	.	.	.	.	.
8d	you	.	.	.	.	.	.
8e	treat	.	.	.	B	.	.
8d	_	.	.	.	.	.	.
8B	him	.	.	.	.	.	.
[8B	right	.	.	.	C	.	.
=88	=88	=88	=88	=88	=88	=88	=88
8B]	_	1Bm	.	voice	.	153.252	B:min
8r	.	.	.	.	.	.	.
4r	.	.	.	.	.	.	.
4r	.	.	.	.	.	.	.
8r	.	.	.	.	.	.	.
[8e	Now	.	.	.	.	.	.
=89	=89	=89	=89	=89	=89	=89	=89
*>Letter>A	*>Letter>A	*>Letter>A	*>Letter>A	*>Letter>A	*>Letter>A	*>Letter>A	*>Letter>A
*>Label>Verse	*>Label>Verse	*>Label>Verse	*>Label>Verse	*>Label>Verse	*>Label>Verse	*>Label>Verse	*>Label>Verse
6e]	_	1Bm	newline	voice	.	155.015	B:min
6d	you've	.	.	.	.	.	.
12e	lis-	.	.	.	.	.	.
[12d	-tened	.	.	.	.	.	.
8d]	_	.	.	.	.	.	.
8e	to	.	.	.	.	.	.
4B	my	.	.	.	.	.	.
=90	=90	=90	=90	=90	=90	=90	=90
8d	sto-	1Bm	.	voice	.	156.758	B:min
8e	-ry	.	.	.	b	.	.
4r	.	.	.	.	.	.	.
4r	.	.	.	.	.	.	.
8r	.	.	.	.	.	.	.
[8e	here's	.	.	.	.	.	.
=91	=91	=91	=91	=91	=91	=91	=91
8e]	_	1Bm	.	voice	.	158.5	B:min
8d	the	.	.	.	.	.	.
8e	point	.	.	.	.	.	.
8d	that	.	.	.	.	.	.
8e	I	.	.	.	.	.	.
8d	_	.	.	.	.	.	.
8B	have	.	.	.	.	.	.
[8B	made	.	.	.	E	.	.
=92	=92	=92	=92	=92	=92	=92	=92
8B]	_	1Bm	.	voice	.	160.243	B:min
8r	.	.	.	.	.	.	.
4r	.	.	.	.	.	.	.
4r	.	.	.	.	.	.	.
8r	.	.	.	.	.	.	.
[8e	chicks	.	.	.	.	.	.
=93	=93	=93	=93	=93	=93	=93	=93
8e]	_	1Bm	newline	voice	.	161.986	B:min
8d	were	.	.	.	.	.	.
8e	born	.	.	.	.	.	.
8d	to	.	.	.	.	.	.
4e	give	.	.	.	.	.	.
8B	you	.	.	.	.	.	.
[8d	fe	.	.	.	(B	.	.
=94	=94	=94	=94	=94	=94	=94	=94
8d]	_	1Bm	.	voice	.	163.744	B:min
8e	ver	.	.	.	b)	.	.
4r	.	.	.	.	.	.	.
8r	.	.	.	.	.	.	.
8B	be	.	.	.	b	.	.
8B	it	.	.	.	.	.	.
[8e	Fah	.	.	.	.	.	.
=95	=95	=95	=95	=95	=95	=95	=95
24e]	_	1F#Mm	.	voice	.	165.502	F#:7
8d	ren-	.	.	.	.	.	.
8e	-heit	.	.	.	C	.	.
[8d	or	.	.	.	.	.	.
12d]	_	.	.	.	.	.	.
8e	Cen	.	.	.	.	.	.
8d	_	.	.	.	.	.	.
8B	ti-	.	.	.	.	.	.
[8B	-grade,	.	.	.	E	.	.
=96	=96	=96	=96	=96	=96	=96	=96
8B]	_	1Bm	.	voice	.	167.26	B:min
8B	they	.	.	.	.	.	.
8B	give	.	.	.	.	.	.
8B	you	.	.	.	.	.	.
4d	fe-	.	.	.	(B	.	.
4B	-ver.	.	.	.	b)	.	.
=97	=97	=97	=97	=97	=97	=97	=97
*>Letter>B	*>Letter>B	*>Letter>B	*>Letter>B	*>Letter>B	*>Letter>B	*>Letter>B	*>Letter>B
*>Label>Chorus	*>Label>Chorus	*>Label>Chorus	*>Label>Chorus	*>Label>Chorus	*>Label>Chorus	*>Label>Chorus	*>Label>Chorus
1r	.	1Bm	newline	voice	.	169.018	B:min
=98	=98	=98	=98	=98	=98	=98	=98
8r	.	1Bm	.	voice	.	170.776	B:min
8eq	_	.	.	.	.	.	.
[8f	When	.	.	.	.	.	.
8f]	_	.	.	.	.	.	.
8d	you	.	.	.	.	.	.
8e	kiss	.	.	.	(G	.	.
8d	them,	.	.	.	g)	.	.
8r	.	.	.	.	.	.	.
[8e	fe	.	.	.	(B	.	.
=99	=99	=99	=99	=99	=99	=99	=99
8e]	_	1Bm	.	voice	.	172.534	B:min
8d	ver	.	.	.	b)	.	.
8e	if	.	.	.	.	.	.
8d	you	.	.	.	.	.	.
8e	live	.	.	.	.	.	.
8d	_	.	.	.	.	.	.
8B	and	.	.	.	.	.	.
[8B	learn	.	.	.	H	.	.
=100	=100	=100	=100	=100	=100	=100	=100
4B]	_	1Bm	.	voice	.	174.292	B:min
4r	.	.	.	.	.	.	.
4r	.	.	.	.	.	.	.
12r	.	.	.	.	.	.	.
12r	.	.	.	.	.	.	.
12a	Fe-	.	.	.	(B	.	.
=101	=101	=101	=101	=101	=101	=101	=101
8b	-ver!	1Bm	newline	voice	b)	176.049	B:min
8r	.	.	.	.	.	.	.
4r	.	.	.	.	.	.	.
4r	.	.	.	.	.	.	.
8r	.	.	.	.	.	.	.
8e	'Till	.	.	.	.	.	.
=102	=102	=102	=102	=102	=102	=102	=102
4d	you	1Bm	.	voice	.	177.804	B:min
12e	siz-	.	.	.	(G	.	.
6d	-zle	.	.	.	g)	.	.
4r	.	.	.	.	.	.	.
8r	.	.	.	.	.	.	.
8~A	Oh,	.	.	.	.	.	.
=103	=103	=103	=103	=103	=103	=103	=103
8e	what	1F#Mm	.	voice	.	179.559	F#:7
8d	a	.	.	.	.	.	.
8e	love-	.	.	.	.	.	.
8d	-ly	.	.	.	b	.	.
8e	way	.	.	.	.	.	.
8d	_	.	.	.	.	.	.
8B	to	.	.	.	.	.	.
[8B	burn	.	.	.	G	.	.
=104	=104	=104	=104	=104	=104	=104	=104
4B]	_	1Bm	.	voice	.	181.314	B:min
8r	.	.	.	.	.	.	.
4r	.	.	.	.	.	.	.
4r	.	.	.	.	.	.	.
8~A	Oh,	.	.	.	.	.	.
=105	=105	=105	=105	=105	=105	=105	=105
8e	what	1F#Mm	newline	voice	.	183.068	F#:7
8d	a	.	.	.	.	.	.
8e	love-	.	.	.	.	.	.
8d	-ly	.	.	.	b	.	.
8e	way	.	.	.	.	.	.
8d	_	.	.	.	.	.	.
8B	to	.	.	.	.	.	.
[8B	burn	.	.	.	G	.	.
=106	=106	=106	=106	=106	=106	=106	=106
4B]	_	1Bm	.	voice	.	184.816	B:min
4r	.	.	.	.	.	.	.
6r	.	.	.	.	.	.	.
6r	.	.	.	.	.	.	.
6b	What	.	.	.	.	.	.
=107	=107	=107	=107	=107	=107	=107	=107
8eq	_	.	.	.	.	.	.
6f	a	1F#Mm	.	voice	.	186.564	F#:7
8e	love-	.	.	.	.	.	.
8d	-ly	.	.	.	b	.	.
12e	way	.	.	.	.	.	.
4d	_	.	.	.	.	.	.
8B	to	.	.	.	.	.	.
[8B	burn!	.	.	.	G	.	.
=108	=108	=108	=108	=108	=108	=108	=108
4B]	_	1Bm	.	voice	.	188.311	B:min
8r	.	.	.	.	.	.	.
4r	.	.	.	.	.	.	.
4r	.	.	.	.	.	.	.
8~A	Oh,	.	.	.	.	.	.
=109	=109	=109	=109	=109	=109	=109	=109
8e	what	1F#Mm	newline	voice	.	190.059	F#:7
8d	a	.	.	.	.	.	.
8e	love-	.	.	.	.	.	.
8d	-ly	.	.	.	b	.	.
8e	way	.	.	.	.	.	.
8d	_	.	.	.	.	.	.
8B	to	.	.	.	.	.	.
[8B	burn	.	.	.	G	.	.
=110	=110	=110	=110	=110	=110	=110	=110
2B]	_	1Bm	.	voice	.	191.801	B:min
2r	.	.	.	.	.	.	.
=111	=111	=111	=111	=111	=111	=111	=111
1r	.	1F#Mm	.	voice	.	193.544	F#:7
=112	=112	=112	=112	=112	=112	=112	=112
1r	.	1Bm	.	voice	.	195.286	B:min
r;	.	1r;	.	r	.	198.553	N.C.
r;	.	1r;	.	r	.	202.773	N.C.
*-	*-	*-	*-	*-	*-	*-	*-
!!!BillboardChartDate: 1958/09/22
!!!BillboardPeak: 8
!!!BillboardWeeksOnChart: 16
!!!COC: Peggy Lee
!!!ENC: Nathaniel Condit-Schultz
!!!EST: Awating manual error checking and editing.
!!!OTL: Fever
!!!RDF**chordsym: original McGill chord annotation + (implied pitch class set, with bass pitch in first position)
!!!RDF**harmony: **recip + pitch class of root + harmonic quality
!!!RDF**leadinstrument: original McGill primary instrumentation annotation
!!!RDF**phrase: newline = linebreak in original McGill transcription
!!!RDF**timestamp: McGill audio timestamp in seconds
!!!RDT: 2017/01/12/
!!!SampleActualRank: 33
!!!SampleID#: 0396
!!!SampleTargetRank: 32
